static/img/kroki/405b96d703d6114b06b9c8a8a0ca5595.svg

<?xml version="1.0" encoding="us-ascii" standalone="no"?><svg xmlns="http://www.w3.org/2000/svg" xmlns:xlink="http://www.w3.org/1999/xlink" contentStyleType="text/css" height="374px" preserveAspectRatio="none" style="width:454px;height:374px;" version="1.1" viewBox="0 0 454 374" width="454px" zoomAndPan="magnify"><defs/><g><!--class aws_cloud_formation_stack_instance_summary--><g id="elem_aws_cloud_formation_stack_instance_summary"><rect codeLine="23" fill="#3D176E" height="39.7891" id="aws_cloud_formation_stack_instance_summary" rx="2.5" ry="2.5" style="stroke:#000D19;stroke-width:0.5;" width="440" x="7" y="328.58"/><ellipse cx="22" cy="348.4745" fill="#ADD1B2" rx="11" ry="11" style="stroke:#181818;stroke-width:1.0;"/><path d="M24.9688,354.1152 Q24.3906,354.412 23.75,354.5527 Q23.1094,354.7089 22.4063,354.7089 Q19.9063,354.7089 18.5781,353.0683 Q17.2656,351.412 17.2656,348.287 Q17.2656,345.162 18.5781,343.5058 Q19.9063,341.8495 22.4063,341.8495 Q23.1094,341.8495 23.75,342.0058 Q24.4063,342.162 24.9688,342.4589 L24.9688,345.1777 Q24.3438,344.5995 23.75,344.3339 Q23.1563,344.0527 22.5313,344.0527 Q21.1875,344.0527 20.5,345.1308 Q19.8125,346.1933 19.8125,348.287 Q19.8125,350.3808 20.5,351.4589 Q21.1875,352.5214 22.5313,352.5214 Q23.1563,352.5214 23.75,352.2558 Q24.3438,351.9745 24.9688,351.3964 L24.9688,354.1152 Z " fill="#000000"/><text fill="#D9B8FF" font-family="Helvetica" font-size="17" lengthAdjust="spacing" textLength="398" x="41" y="354.3598">aws_cloud_formation_stack_instance_summary</text></g><!--class aws_resource--><g id="elem_aws_resource"><rect codeLine="26" fill="#3D176E" height="39.7891" id="aws_resource" rx="2.5" ry="2.5" style="stroke:#000D19;stroke-width:0.5;" width="155" x="149.5" y="167.79"/><ellipse cx="164.5" cy="187.6845" fill="#ADD1B2" rx="11" ry="11" style="stroke:#181818;stroke-width:1.0;"/><path d="M167.4688,193.3252 Q166.8906,193.622 166.25,193.7627 Q165.6094,193.9189 164.9063,193.9189 Q162.4063,193.9189 161.0781,192.2783 Q159.7656,190.622 159.7656,187.497 Q159.7656,184.372 161.0781,182.7158 Q162.4063,181.0595 164.9063,181.0595 Q165.6094,181.0595 166.25,181.2158 Q166.9063,181.372 167.4688,181.6689 L167.4688,184.3877 Q166.8438,183.8095 166.25,183.5439 Q165.6563,183.2627 165.0313,183.2627 Q163.6875,183.2627 163,184.3408 Q162.3125,185.4033 162.3125,187.497 Q162.3125,189.5908 163,190.6689 Q163.6875,191.7314 165.0313,191.7314 Q165.6563,191.7314 166.25,191.4658 Q166.8438,191.1845 167.4688,190.6064 L167.4688,193.3252 Z " fill="#000000"/><text fill="#D9B8FF" font-family="Helvetica" font-size="17" lengthAdjust="spacing" textLength="113" x="183.5" y="193.5698">aws_resource</text></g><!--class resource--><g id="elem_resource"><rect codeLine="29" fill="#3D176E" height="39.7891" id="resource" rx="2.5" ry="2.5" style="stroke:#000D19;stroke-width:0.5;" width="113" x="170.5" y="7"/><ellipse cx="185.5" cy="26.8945" fill="#ADD1B2" rx="11" ry="11" style="stroke:#181818;stroke-width:1.0;"/><path d="M188.4688,32.5352 Q187.8906,32.832 187.25,32.9727 Q186.6094,33.1289 185.9063,33.1289 Q183.4063,33.1289 182.0781,31.4883 Q180.7656,29.832 180.7656,26.707 Q180.7656,23.582 182.0781,21.9258 Q183.4063,20.2695 185.9063,20.2695 Q186.6094,20.2695 187.25,20.4258 Q187.9063,20.582 188.4688,20.8789 L188.4688,23.5977 Q187.8438,23.0195 187.25,22.7539 Q186.6563,22.4727 186.0313,22.4727 Q184.6875,22.4727 184,23.5508 Q183.3125,24.6133 183.3125,26.707 Q183.3125,28.8008 184,29.8789 Q184.6875,30.9414 186.0313,30.9414 Q186.6563,30.9414 187.25,30.6758 Q187.8438,30.3945 188.4688,29.8164 L188.4688,32.5352 Z " fill="#000000"/><text fill="#D9B8FF" font-family="Helvetica" font-size="17" lengthAdjust="spacing" textLength="71" x="204.5" y="32.7798">resource</text></g><!--reverse link aws_resource to aws_cloud_formation_stack_instance_summary--><g id="link_aws_resource_aws_cloud_formation_stack_instance_summary"><path codeLine="32" d="M227,225.84 C227,256.36 227,297.69 227,328.25 " fill="none" id="aws_resource-backto-aws_cloud_formation_stack_instance_summary" style="stroke:#FFAF37;stroke-width:2.0;"/><polygon fill="none" points="227,207.84,221,225.84,233,225.84,227,207.84" style="stroke:#FFAF37;stroke-width:2.0;"/></g><!--reverse link resource to aws_resource--><g id="link_resource_aws_resource"><path codeLine="33" d="M227,65.05 C227,95.57 227,136.9 227,167.46 " fill="none" id="resource-backto-aws_resource" style="stroke:#FFAF37;stroke-width:2.0;"/><polygon fill="none" points="227,47.05,221,65.05,233,65.05,227,47.05" style="stroke:#FFAF37;stroke-width:2.0;"/></g><!--SRC=[bP3DQm8n4CNl-rS4F0jQQLNeHONINgJKtfSncMXmav6PRCL-_EzTQornrmzw2hptcxmtitG65Vfrt2gFVeuicQnSM0E3LoDcsaoe85OjQy7s-dNpWKAy2ap1eth4uWsZqr0dNfTEhmAAg9l46eDUBPZAOFRVHuOWbOKX9jIa095HZEpcPSIaZ1dE1zRMoVgdhPxfzk-mWH4Rv5-aq-cOxh2EN8swkFSVCNFlgBhfqQOKiL6p4V53NMov8vAIZKKF_jcEps2C2mjrcsWl-quSa8_qsH8CRNQqXKBI68d8I76xnabZAnmEZEsVX9_EmPdUdKx1Hd9TK6boI-mXEWgvn6ecTw5wWyPSIk-1j-eZoxwIAKQXaZMc-h5sHDr_jjljVyHb9oOFKlOD]--></g></svg>

<svg xmlns="http://www.w3.org/2000/svg" width="454" height="374" viewBox="0 0 454 374"><rect width="440" height="39.789" x="7" y="328.58" fill="#3D176E" rx="2.5" ry="2.5" style="stroke:#000d19;stroke-width:.5"/><circle cx="22" cy="348.474" r="11" fill="#ADD1B2" style="stroke:#181818;stroke-width:1"/><path d="M24.969 354.115q-.578.297-1.219.438-.64.156-1.344.156-2.5 0-3.828-1.64-1.312-1.657-1.312-4.782t1.312-4.781q1.328-1.656 3.828-1.656.703 0 1.344.156.656.156 1.219.453v2.719q-.625-.579-1.219-.844-.594-.281-1.219-.281-1.343 0-2.031 1.078-.687 1.062-.687 3.156t.687 3.172q.688 1.062 2.031 1.062.625 0 1.219-.265.594-.281 1.219-.86z"/><text x="41" y="354.36" fill="#D9B8FF" font-family="Helvetica" font-size="17" textLength="398">aws_cloud_formation_stack_instance_summary</text><rect width="155" height="39.789" x="149.5" y="167.79" fill="#3D176E" rx="2.5" ry="2.5" style="stroke:#000d19;stroke-width:.5"/><circle cx="164.5" cy="187.685" r="11" fill="#ADD1B2" style="stroke:#181818;stroke-width:1"/><path d="M167.469 193.325q-.578.297-1.219.438-.64.156-1.344.156-2.5 0-3.828-1.64-1.312-1.657-1.312-4.782t1.312-4.781q1.328-1.656 3.828-1.656.703 0 1.344.156.656.156 1.219.453v2.719q-.625-.578-1.219-.844-.594-.281-1.219-.281-1.344 0-2.031 1.078-.687 1.062-.687 3.156t.687 3.172q.688 1.062 2.031 1.062.625 0 1.219-.265.594-.281 1.219-.86z"/><text x="183.5" y="193.57" fill="#D9B8FF" font-family="Helvetica" font-size="17" textLength="113">aws_resource</text><rect width="113" height="39.789" x="170.5" y="7" fill="#3D176E" rx="2.5" ry="2.5" style="stroke:#000d19;stroke-width:.5"/><circle cx="185.5" cy="26.895" r="11" fill="#ADD1B2" style="stroke:#181818;stroke-width:1"/><path d="M188.469 32.535q-.578.297-1.219.438-.64.156-1.344.156-2.5 0-3.828-1.64-1.312-1.657-1.312-4.782t1.312-4.781q1.328-1.656 3.828-1.656.703 0 1.344.156.656.156 1.219.453v2.719q-.625-.578-1.219-.844-.594-.281-1.219-.281-1.344 0-2.031 1.078-.687 1.062-.687 3.156t.687 3.172q.688 1.062 2.031 1.062.625 0 1.219-.265.594-.281 1.219-.86z"/><text x="204.5" y="32.78" fill="#D9B8FF" font-family="Helvetica" font-size="17" textLength="71">resource</text><path fill="none" d="M227 225.84v102.41m0-120.41-6 18h12zm0-142.79v102.41m0-120.41-6 18h12z" style="stroke:#ffaf37;stroke-width:2"/></svg>
